lib/preview/nrk-logo-preview-nrk-p3-x-with-bg.svg

<svg width="85" height="24" viewBox="0 0 85 24" fill="none" xmlns="http://www.w3.org/2000/svg">
<rect width="85" height="24" fill="#FFE100"/>
<path d="M79.1472 18L75.0044 11.7406L78.7892 6H76.8958L74.1462 10.5696L71.1298 6H69.0491L72.9362 11.8239L68.8615 17.9997H70.789L73.8226 13.0679L77.0832 17.9997L79.1472 18Z" fill="black"/>
<path d="M52.3374 6.005H48.6362C48.6362 6.005 50.7394 9.45756 50.7631 9.50102C50.8423 9.60086 50.8866 9.72398 50.8891 9.85143C50.8916 9.97888 50.8522 10.1036 50.7769 10.2065L48.6362 13.7155H52.338C52.338 13.7155 54.1231 10.7966 54.3672 10.3913C54.483 10.2361 54.5447 10.0472 54.543 9.8535C54.5412 9.65983 54.476 9.47208 54.3573 9.319C54.094 8.87061 54.0935 8.8709 52.3374 6.005Z" fill="black"/>
<path d="M48.158 6.00505H44.8615V17.9983H48.158V6.00505Z" fill="black"/>
<path d="M63.9308 7.99189C63.8064 7.77969 62.7047 6.005 62.7047 6.005H54.782L56.5127 8.90786H60.6856L58.9643 11.7297L60.8832 14.9537L59.0312 17.9974H62.4135C62.9573 17.108 63.7703 15.732 63.9401 15.4501C64.0566 15.2943 64.1187 15.1046 64.1169 14.91C64.1152 14.7155 64.0496 14.5269 63.9302 14.3733C63.7609 14.0843 62.8551 12.6477 62.3139 11.7633C62.3139 11.7633 63.7703 9.35005 63.9401 9.06815C64.0566 8.91245 64.1187 8.72286 64.117 8.52845C64.1153 8.33404 64.0499 8.14555 63.9308 7.99189Z" fill="black"/>
<path d="M56.3101 12.1194C55.7886 12.9711 54.9166 14.3984 54.7532 14.6766C54.6382 14.8246 54.575 15.0063 54.5733 15.1937C54.5716 15.3811 54.6314 15.5639 54.7436 15.7139C54.9073 15.9854 55.786 17.424 56.3101 18.2819C56.8338 17.4249 57.7128 15.9863 57.8762 15.7139C57.9884 15.5638 58.0482 15.3811 58.0465 15.1937C58.0449 15.0063 57.9818 14.8247 57.8669 14.6766C57.7035 14.3984 56.8313 12.9711 56.3101 12.1194Z" fill="black"/>
<path d="M6.00427 18V6.00109H9.94146V18H6.00427ZM15.2981 7.91078L17.5623 18H13.2534L10.5498 6.00109H12.9664C13.5206 5.9939 14.0583 6.18925 14.4788 6.55039C14.8999 6.89638 15.1892 7.3767 15.2981 7.91078ZM18.1538 18V6.00109H22.091V18H18.1538ZM25.0647 10.5641C24.6405 10.5682 24.223 10.4572 23.8568 10.243C23.4955 10.0341 23.1954 9.73396 22.9865 9.3726C22.7721 9.00633 22.661 8.58876 22.6652 8.16432C22.6604 7.74246 22.7715 7.32738 22.9865 6.96443C23.1976 6.60699 23.4974 6.31009 23.8568 6.10252C24.2231 5.8885 24.6405 5.77751 25.0647 5.78138C25.4865 5.77684 25.9014 5.88793 26.2645 6.10252C26.6203 6.31191 26.9169 6.60856 27.1263 6.96443C27.3411 7.32748 27.4522 7.74249 27.4476 8.16432C27.4515 8.58873 27.3405 9.00623 27.1263 9.3726C26.9191 9.73238 26.6222 10.0323 26.2645 10.243C25.9014 10.458 25.4862 10.5691 25.0642 10.5641H25.0647ZM28.0559 18V6.00109H31.9934V18H28.0559ZM36.978 12.5582C36.9891 12.5699 37.0735 12.7079 37.2314 12.9723C37.3893 13.2367 37.5949 13.5747 37.8482 13.9863C38.1017 14.3977 38.3692 14.8343 38.6506 15.296C38.932 15.7577 39.1969 16.1944 39.4451 16.6058C39.6924 17.0172 39.974 17.4819 40.29 18H35.9641C35.6936 17.5606 35.4484 17.1635 35.2287 16.8086C35.0091 16.4537 34.7756 16.0706 34.5281 15.6594C34.2801 15.2485 34.0349 14.8485 33.7925 14.4595C33.5501 14.0704 33.3418 13.7296 33.1675 13.4371C32.9925 13.1443 32.8713 12.9471 32.8039 12.8455C32.6368 12.5934 32.5379 12.3023 32.517 12.0005C32.5337 11.7109 32.6269 11.431 32.787 11.1891C32.8546 11.0764 32.9786 10.8764 33.1588 10.5891C33.339 10.3018 33.5503 9.96105 33.7925 9.56672C34.0347 9.17239 34.2799 8.7696 34.5281 8.35837C34.7763 7.94715 35.0098 7.56124 35.2287 7.20071C35.4488 6.84055 35.6939 6.44059 35.9641 6.00081H40.29L36.9439 11.4595C36.8404 11.6216 36.782 11.8083 36.7749 12.0005C36.786 12.2023 36.8565 12.3963 36.9774 12.5582H36.978Z" fill="black"/>
</svg>

<svg xmlns="http://www.w3.org/2000/svg" viewBox="0 0 85 24"><path fill="#FFE100" d="M0 0h85v24H0z"/><path fill="#000" d="m79.147 18-4.143-6.26L78.79 6h-1.893l-2.75 4.57L71.13 6h-2.08l3.886 5.824L68.861 18h1.928l3.034-4.932L77.083 18h2.064ZM52.337 6.005h-3.7s2.102 3.453 2.126 3.496a.582.582 0 0 1 .014.706l-2.14 3.508h3.701s1.785-2.918 2.03-3.324a.886.886 0 0 0-.01-1.072c-.264-.448-.264-.448-2.02-3.314ZM48.158 6.005h-3.297v11.993h3.297V6.005ZM63.93 7.992c-.124-.212-1.225-1.987-1.225-1.987h-7.923l1.73 2.903h4.174l-1.722 2.822 1.92 3.224-1.853 3.043h3.383c.543-.889 1.356-2.265 1.526-2.547a.888.888 0 0 0-.01-1.077c-.17-.289-1.075-1.725-1.616-2.61l1.626-2.695a.888.888 0 0 0-.01-1.076Z"/><path fill="#000" d="M56.31 12.12c-.521.851-1.393 2.278-1.557 2.557a.855.855 0 0 0-.01 1.037c.164.271 1.043 1.71 1.567 2.568.524-.857 1.403-2.296 1.566-2.568a.856.856 0 0 0-.01-1.037 392.387 392.387 0 0 0-1.556-2.558ZM6.004 18V6.001h3.937V18H6.004Zm9.294-10.09L17.562 18h-4.309L10.55 6.001h2.416a2.276 2.276 0 0 1 1.513.55c.42.345.71.826.82 1.36ZM18.154 18V6.001h3.937V18h-3.937Zm6.91-7.436a2.383 2.383 0 0 1-2.4-2.4 2.303 2.303 0 0 1 .323-1.2 2.411 2.411 0 0 1 3.278-.861c.355.209.652.506.861.861.215.363.326.778.322 1.2a2.4 2.4 0 0 1-1.183 2.079 2.302 2.302 0 0 1-1.2.321ZM28.057 18V6.001h3.937V18h-3.937Zm8.922-5.442c.011.012.096.15.253.414.158.265.364.603.617 1.014a315.936 315.936 0 0 1 1.597 2.62c.247.411.529.876.845 1.394h-4.326c-.27-.44-.516-.837-.735-1.191-.22-.355-.453-.738-.7-1.15-.249-.41-.494-.81-.737-1.2-.242-.389-.45-.73-.625-1.022-.175-.293-.296-.49-.363-.591a1.748 1.748 0 0 1-.287-.845c.017-.29.11-.57.27-.812.068-.113.192-.313.372-.6s.391-.628.633-1.022c.243-.395.488-.797.736-1.209l.7-1.157.736-1.2h4.326l-3.346 5.458a1.08 1.08 0 0 0-.17.542c.012.201.082.395.203.557h.001Z"/></svg>
